source/img/icon-shoe.svg

<svg width="82" height="38" xmlns="http://www.w3.org/2000/svg"><path d="M54.8 37.2c9.4 0 22.6-.9 26.2-5.6l.3-.3-.1-7.8v-1.2c-.1-.8-.2-3-19.4-6.1L38.8 1l-.2-.1c-.1 0-3-.9-5.6 1.8-2.8 2.1-10.5 7.1-14.6 6.9-1.3-1.1-5.9-5-10.4-5.8-1.7-.3-3.6-.5-4.9.8-1.9 1.8-2.1 5.9-.9 16.7v1.1c-.1.3-.3.7-.5 1.3-.3.6-1.6 3.6-1 11.3l.1 1.1 44.4.8c1 .1 4.8.3 9.6.3zM4.5 23.3l.1-.3v-1.9l15.5-.1c.1 0 11.4.4 18.5 3.9.5.3 3.7 2.1 8.8 3.5-.7 0-1.4-.1-2-.1l-42.1-.8c.1-1.7.9-3.5 1.2-4.2zm.3-16.9C5.2 6 6 6 7.6 6.2c4.4.8 9.4 5.4 9.5 5.5l.3.3.4.1c5.8.8 15.8-6.6 16.9-7.4l.2-.1c1.3-1.3 2.6-1.3 3-1.2l4.6 3.1-2.7 3.2c-.4.5-.4 1.3.1 1.8.2.2.5.3.8.3.4 0 .7-.2 1-.4l2.9-3.5 3.4 2.2-2.8 3.3c-.4.5-.4 1.3.2 1.8.2.2.5.3.8.3.4 0 .7-.2 1-.4l3-3.6 3.5 2.3-3.1 3.2c-.4.5-.4 1.3.2 1.8.2.2.5.3.8.3.4 0 .7-.2 1-.4l3-3.6 5.3 3.5h.3c13.3 2.2 16.8 3.8 17.5 4.3v1.2c-6.8 4.3-18.8 3.4-18.9 3.4h-.2c-11.8.1-19.7-4.6-19.8-4.7l-.1-.1c-7.6-3.8-19.1-4.2-19.6-4.2l-15.8.1c-.5-5.6-.8-11 .5-12.2zM3 30l42.3.8c1 .1 4.8.3 9.6.3 8 0 18.6-.7 23.8-3.8v3.1c-4.6 4.8-25.6 4.5-33.5 4L3 33.6V30z" fill="#510EED"/></svg>

<?xml version="1.0" encoding="UTF-8"?>
<svg width="82px" height="38px" viewBox="0 0 82 38" version="1.1" xmlns="http://www.w3.org/2000/svg" xmlns:xlink="http://www.w3.org/1999/xlink">
    <!-- Generator: Sketch 49.3 (51167) - http://www.bohemiancoding.com/sketch -->
    <title>icon-shoe</title>
    <desc>Created with Sketch.</desc>
    <defs></defs>
    <g id="Page-1" stroke="none" stroke-width="1" fill="none" fill-rule="evenodd">
        <g id="desktop" transform="translate(-681.000000, -1190.000000)" fill="#510EED" fill-rule="nonzero">
            <g id="features" transform="translate(0.000000, 936.000000)">
                <g id="cards" transform="translate(168.000000, 217.000000)">
                    <g id="cards-copy" transform="translate(381.000000, 0.000000)">
                        <g id="Group">
                            <g id="noun_829328_cc" transform="translate(132.000000, 37.000000)">
                                <path d="M54.8,37.2 C64.2,37.2 77.4,36.3 81,31.6 L81.3,31.3 L81.2,23.5 L81.2,22.3 C81.1,21.5 81,19.3 61.8,16.2 L38.8,1 L38.6,0.9 C38.5,0.9 35.6,1.44328993e-15 33,2.7 C30.2,4.8 22.5,9.8 18.4,9.6 C17.1,8.5 12.5,4.6 8,3.8 C6.3,3.5 4.4,3.3 3.1,4.6 C1.2,6.4 1,10.5 2.2,21.3 L2.2,22.4 C2.1,22.7 1.9,23.1 1.7,23.7 C1.4,24.3 0.1,27.3 0.7,35 L0.8,36.1 L45.2,36.9 C46.2,37 50,37.2 54.8,37.2 Z M4.5,23.3 L4.6,23 L4.6,21.2 L4.6,21.1 L20.1,21 C20.2,21 31.5,21.4 38.6,24.9 C39.1,25.2 42.3,27 47.4,28.4 C46.7,28.4 46,28.3 45.4,28.3 L3.3,27.5 C3.4,25.8 4.2,24 4.5,23.3 Z M4.8,6.4 C5.2,6 6,6 7.6,6.2 C12,7 17,11.6 17.1,11.7 L17.4,12 L17.8,12.1 C23.6,12.9 33.6,5.5 34.7,4.7 L34.9,4.6 C36.2,3.3 37.5,3.3 37.9,3.4 L42.5,6.5 L39.8,9.7 C39.4,10.2 39.4,11 39.9,11.5 C40.1,11.7 40.4,11.8 40.7,11.8 C41.1,11.8 41.4,11.6 41.7,11.4 L44.6,7.9 L48,10.1 L45.2,13.4 C44.8,13.9 44.8,14.7 45.4,15.2 C45.6,15.4 45.9,15.5 46.2,15.5 C46.6,15.5 46.9,15.3 47.2,15.1 L50.2,11.5 L53.7,13.8 L50.6,17 C50.2,17.5 50.2,18.3 50.8,18.8 C51,19 51.3,19.1 51.6,19.1 C52,19.1 52.3,18.9 52.6,18.7 L55.6,15.1 L60.9,18.6 L61.2,18.6 C74.5,20.8 78,22.4 78.7,22.9 L78.7,24.1 C71.9,28.4 59.9,27.5 59.8,27.5 L59.7,27.5 L59.6,27.5 C47.8,27.6 39.9,22.9 39.8,22.8 L39.7,22.7 C32.1,18.9 20.6,18.5 20.1,18.5 L4.3,18.6 C3.8,13 3.5,7.6 4.8,6.4 Z M3,30 L45.3,30.8 C46.3,30.9 50.1,31.1 54.9,31.1 C62.9,31.1 73.5,30.4 78.7,27.3 L78.7,30.4 C74.1,35.2 53.1,34.9 45.2,34.4 L3,33.6 C3,32.3 3,31.1 3,30 Z" id="icon-shoe"></path>
                            </g>
                        </g>
                    </g>
                </g>
            </g>
        </g>
    </g>
</svg>
